X: 33722
T: Ratha Fair
R: reel
M: 4/4
K: Ddorian
"Dm"adaf "C"ecge|"Dm"adag adag|"Dm"adaf "C"ecge|"Dm"af"Am"ge "Dm"d2 df|
"Dm"adaf "C"ecge|"Dm"adag adfa|"C"gb"Dm"fa "Am"gceg|"Dm"af"Am"ge "Dm"d3||
|:e|"Am"cAAc "C/G"GAcG|"Am"cAAB cded|"F"cAAc "C/G"GAcG|"Am"AcEc "Dm"D3:|

